X: 12
T: Cup Of Tea, The
Z: UPipes & harp
S: https://thesession.org/tunes/20#setting49940
R: reel
M: 4/4
L: 1/8
K: Edor
|:BAGF GE E2|GEBE GE E2|BAGF GE E2|FDAD FD D2|
BAGF GE E2|GBEG BE E2|BAGF GABc|dBAG FD D2:|
|:d2 (3efg fdec|dfeg fB B2|d2 (3efg fdec|dBAG FD D2|
d2 (3efg fdec|dfaf g2 fg|af (3gfe fdec|dBAG FD D2:|
|:FAdA BAdA|FAdA BEE2|FAdA BABc|dBAG FD D2|
FAdA BAdA|FAde feeg|fdec dBAF|GBAG FD D2:|

